src/assets/logo.svg

<svg xmlns="http://www.w3.org/2000/svg" viewBox="0 0 900 168"  stroke="#00000000"><path d="M147 14.5c-.1.3-.1 5.1-.1 10.7l-.1 10.3 25.2.6V14h-12.5c-6.9 0-12.5.2-12.5.5z" fill="#6f6e6c"/><path d="M719.7 14.7c-.2.5-.4 5.3-.3 10.8l.1 10 24.5.6V14h-11.9c-6.6 0-12.2.3-12.4.7z" fill="#8cb712"/><path d="M39 84v69h28l.2-29.3.3-29.2 60-1 .3-10.4c.2-6.6-.1-10.7-.8-11.1-.6-.4-13.9-.6-29.6-.5-15.7 0-29-.3-29.7-.7-1.3-.8-1.1-31.7.2-33 .4-.4 16-.9 34.6-1l34-.3v-21l-48.7-.3L39 15v69zm147-11.5c0 45.5.2 50.1 1.9 56.4 1 3.7 2.5 7.9 3.2 9.2 1.9 3.2 10.1 11.8 11.5 11.9.5 0 1.5.5 2.2 1.2 4.6 4.6 28 6.5 37.9 3 11.6-4.1 19-11.2 23.2-22.1 1.8-4.7 2-7.8 2.1-23.5V88.7c0-1.5-1.2-1.7-10.9-1.7h-10.9l-.4 16.7c-.5 18.5-1.3 21.6-6.8 27-3.5 3.4-9.2 4.7-15.2 3.4-5.2-1.2-8.4-4-10.8-9.3-1.9-4.5-2-6.4-1.8-30l.3-25.3 28.3-.3L268 69V51l-28.2-.2-28.3-.3-.6-27.5H186v49.5zm143.5-22.9c-5.9.9-11.1 3.8-17.1 9.6-5.3 5.2-6.2 5.7-7.4 4.4-.8-1-1-2.8-.6-4.7.3-1.7.3-4.2 0-5.5-.6-2.3-.8-2.4-11.4-2.4-8.9 0-10.9.3-11.4 1.6-1.1 2.7-.7 100.2.4 100.6.5.1 6.4.2 13 0l12-.3v-34.4c0-33.8 0-34.4 2.2-38.2 2.7-4.5 6.7-8.2 8.9-8.3.8 0 2-.5 2.7-1.2.6-.6 4-1.2 7.4-1.2 6.6-.1 12.1 1.8 15 5.1 4.2 4.8 4.3 5.6 4.8 42.6l.5 35.8h24l.3-39.3c.2-38 .2-39.5-1.9-45-2.7-7.3-8.7-14.2-14.7-16.9-4.7-2.1-19.5-3.4-26.7-2.3zm91.5.3c-23.1 4.1-36.9 23.3-37 51.5 0 29.1 10.8 46.1 33.7 53 7.5 2.3 26.1 2.1 33.1-.3 7.9-2.7 19.4-10.8 21.5-15.1 1.3-2.6 3.2-5.7 4.4-7.1.6-.8 1.3-2.5 1.5-3.9l.3-2.5-12.7-.3c-7.7-.1-12.8.1-12.8.7 0 2.1-5.4 7.2-9.7 9.1-10.3 4.5-22.6.9-28.8-8.5-2-3.1-5.5-12-5.5-14.1 0-.7.7-2 1.6-2.9 1.4-1.4 5.7-1.5 35.7-1.5l34.2.1.3-6.1c.2-3.3-.4-8.8-1.3-12.1-.8-3.3-1.5-7.1-1.5-8.4s-.4-2.6-.9-2.9-1.2-1.8-1.5-3.2c-.9-3.6-6.6-12.2-10.5-16-1.8-1.7-6.1-4.6-9.7-6.3-6-2.9-7.6-3.2-18.2-3.6-6.5-.2-13.7 0-16.2.4zm22.8 21.3c7.6 4.6 13.8 17.8 10 21.6-.9.9-6.9 1.2-20.9 1.2-17 0-20-.2-21.4-1.6-1.1-1.1-1.4-2.5-1-3.8.4-1.2.9-3.2 1.2-4.6.6-2.3 3.4-7 5.8-9.5 6-6.2 18.8-7.8 26.3-3.3z" fill="#6f6e6c"/><path d="M796 49.9c-3 .3-6.4 1.2-7.5 1.8-1.1.7-4.2 2.2-6.8 3.3-7.2 3.1-17 13.3-20.5 21.2-3.8 8.5-4.7 14-4.7 27.3.1 18.4 3.5 27.7 13.9 38.1 9.8 9.7 21.9 14.4 37.6 14.4 8.4 0 21.1-2.7 23.4-5 .5-.5 1.6-1 2.4-1 2 0 9.6-6.1 13.7-10.9 4.2-5.1 8.5-13.4 8.5-16.6 0-1.2.7-3.9 1.5-5.8 2-4.9 2-25.1 0-28.7-.8-1.4-1.4-4.1-1.5-6 0-4.9-8.7-18-14.8-22.5-5-3.7-6.2-4.3-13.3-7.4-5.2-2.3-22.2-3.5-31.9-2.2zm19.4 20c.3.4 1.8 1.1 3.4 1.4 3.9.8 10.6 7.6 13.2 13.4 1.8 4.1 2.2 6.8 2.3 17.8 0 12.4-.1 13.4-2.8 18.8-5.6 11.5-16.1 16.4-29.6 13.9-9.9-1.8-15.6-7.5-19.2-19.3-3.3-10.7-1.5-27.5 3.8-35.8 4.2-6.7 12.7-11 22.2-11 3.4-.1 6.4.3 6.7.8z" fill="#8cb712"/><path d="M146.8 101.6c-.2 27.8 0 50.8.5 51.1.4.2 6 .4 12.5.4h11.7V51.5l-24.5-.6-.2 50.7zm345.8-49c-.3.9-.6 4.6-.6 8.4 0 10.9-2.1 10 24.6 10H540v2.3c0 1.2-.8 3-1.7 3.8-1.8 1.6-2.4 2.3-12.2 13.9-3 3.6-5.7 6.7-6.1 7-.3.3-4.8 5.4-10 11.5l-17.4 20.2-3.7 4.1.6 19.2h87l.6-19h-25.5c-14 0-26.1-.3-27-.6-2.2-.8-2-2.5.7-5.4 1.3-1.4 5.6-6.3 9.7-11s8.6-9.7 10-11.1c1.4-1.5 3.4-3.7 4.5-5 4.2-4.9 19.8-22.4 20.4-22.9.4-.3 1.7-1.8 2.9-3.4 1.9-2.5 2.2-4.1 2.2-11.7 0-4.8-.3-9.4-.6-10.3-.5-1.4-5.1-1.6-40.9-1.6s-40.4.2-40.9 1.6zm94.6-.8c-.9.6-1.2 3.3-1 9.8l.3 8.9 23.8.3c25.8.3 25.8.2 21.5 5.8-2 2.6-14.5 17.1-15.8 18.4-.3.3-4.8 5.4-10 11.5l-10.9 12.6c-2.3 2.3-6.1 6.7-9.8 11.4-3.2 3.9-3.3 4.3-3.3 13.2v9.3h86.8c.4 0 .7-4.3.7-9.6v-9.5l-25.6.1c-21 0-25.8-.2-26.8-1.4-.9-1.1-.9-1.7.1-2.8.7-.7 4.5-4.9 8.3-9.3L641 103l8.5-9.5 16.3-18.3c1.2-1.4 2.2-3 2.2-3.6.3-6.8 0-18.8-.5-19.6-.8-1.2-78.3-1.4-80.3-.2z" fill="#6f6e6c"/><path d="M720.4 52.2c-.4.7-.8 23.5-.8 50.7l-.1 49.6 24.5.6v-50c0-46.6-.1-50.1-1.8-51-2.6-1.4-21-1.3-21.8.1z" fill="#8cb712"/><path d="M691.6 128l-12.8.5v24l27.2.6v-12.5c0-6.9-.3-12.6-.7-12.8-.5-.2-6.6-.1-13.7.2z" fill="#6f6e6c"/></svg>

<svg
  xmlns="http://www.w3.org/2000/svg"
  viewBox="0 0 900 168"
  id="vector">
  <path
    id="path"
    d="M 147 14.5 C 146.9 14.8 146.9 19.6 146.9 25.2 L 146.8 35.5 L 159.4 35.8 L 172 36.1 L 172 25 L 172 14 L 159.5 14 C 152.6 14 147 14.2 147 14.5 Z"
    fill="#6f6e6c"
    stroke="#00000000"/>
  <path
    id="path_1"
    d="M 719.7 14.7 C 719.5 15.2 719.3 20 719.4 25.5 L 719.5 35.5 L 731.8 35.8 L 744 36.1 L 744 25 L 744 14 L 732.1 14 C 725.5 14 719.9 14.3 719.7 14.7 Z"
    fill="#8cb712"
    stroke="#00000000"/>
  <path
    id="path_2"
    d="M 39 84 L 39 153 L 53 153 L 67 153 L 67.2 123.7 L 67.5 94.5 L 97.5 94 L 127.5 93.5 L 127.8 83.1 C 128 76.5 127.7 72.4 127 72 C 126.4 71.6 113.1 71.4 97.4 71.5 C 81.7 71.5 68.4 71.2 67.7 70.8 C 66.4 70 66.6 39.1 67.9 37.8 C 68.3 37.4 83.9 36.9 102.5 36.8 L 136.5 36.5 L 136.5 26 L 136.5 15.5 L 87.8 15.2 L 39 15 L 39 84 Z"
    fill="#6f6e6c"
    stroke="#00000000"/>
  <path
    id="path_3"
    d="M 186 72.5 C 186 118 186.2 122.6 187.9 128.9 C 188.9 132.6 190.4 136.8 191.1 138.1 C 193 141.3 201.2 149.9 202.6 150 C 203.1 150 204.1 150.5 204.8 151.2 C 209.4 155.8 232.8 157.7 242.7 154.2 C 254.3 150.1 261.7 143 265.9 132.1 C 267.7 127.4 267.9 124.3 268 108.6 C 268 98.6 268.1 89.7 268 88.7 C 268 87.2 266.8 87 257.1 87 L 246.2 87 L 245.8 103.7 C 245.3 122.2 244.5 125.3 239 130.7 C 235.5 134.1 229.8 135.4 223.8 134.1 C 218.6 132.9 215.4 130.1 213 124.8 C 211.1 120.3 211 118.4 211.2 94.8 L 211.5 69.5 L 239.8 69.2 L 268 69 L 268 60 L 268 51 L 239.8 50.8 L 211.5 50.5 L 211.2 36.7 L 210.9 23 L 198.5 23 L 186 23 L 186 72.5 Z"
    fill="#6f6e6c"
    stroke="#00000000"/>
  <path
    id="path_4"
    d="M 329.5 49.6 C 323.6 50.5 318.4 53.4 312.4 59.2 C 307.1 64.4 306.2 64.9 305 63.6 C 304.2 62.6 304 60.8 304.4 58.9 C 304.7 57.2 304.7 54.7 304.4 53.4 C 303.8 51.1 303.6 51 293 51 C 284.1 51 282.1 51.3 281.6 52.6 C 280.5 55.3 280.9 152.8 282 153.2 C 282.5 153.3 288.4 153.4 295 153.2 L 307 152.9 L 307 118.5 C 307 84.7 307 84.1 309.2 80.3 C 311.9 75.8 315.9 72.1 318.1 72 C 318.9 72 320.1 71.5 320.8 70.8 C 321.4 70.2 324.8 69.6 328.2 69.6 C 334.8 69.5 340.3 71.4 343.2 74.7 C 347.4 79.5 347.5 80.3 348 117.3 L 348.5 153.1 L 360.5 153.1 L 372.5 153.1 L 372.8 113.8 C 373 75.8 373 74.3 370.9 68.8 C 368.2 61.5 362.2 54.6 356.2 51.9 C 351.5 49.8 336.7 48.5 329.5 49.6 Z"
    fill="#6f6e6c"
    stroke="#00000000"/>
  <path
    id="path_5"
    d="M 421 49.9 C 397.9 54 384.1 73.2 384 101.4 C 384 130.5 394.8 147.5 417.7 154.4 C 425.2 156.7 443.8 156.5 450.8 154.1 C 458.7 151.4 470.2 143.3 472.3 139 C 473.6 136.4 475.5 133.3 476.7 131.9 C 477.3 131.1 478 129.4 478.2 128 L 478.5 125.5 L 465.8 125.2 C 458.1 125.1 453 125.3 453 125.9 C 453 128 447.6 133.1 443.3 135 C 433 139.5 420.7 135.9 414.5 126.5 C 412.5 123.4 409 114.5 409 112.4 C 409 111.7 409.7 110.4 410.6 109.5 C 412 108.1 416.3 108 446.3 108 L 480.5 108.1 L 480.8 102 C 481 98.7 480.4 93.2 479.5 89.9 C 478.7 86.6 478 82.8 478 81.5 C 478 80.2 477.6 78.9 477.1 78.6 C 476.6 78.3 475.9 76.8 475.6 75.4 C 474.7 71.8 469 63.2 465.1 59.4 C 463.3 57.7 459 54.8 455.4 53.1 C 449.4 50.2 447.8 49.9 437.2 49.5 C 430.7 49.3 423.5 49.5 421 49.9 Z M 443.8 71.2 C 451.4 75.8 457.6 89 453.8 92.8 C 452.9 93.7 446.9 94 432.9 94 C 415.9 94 412.9 93.8 411.5 92.4 C 410.4 91.3 410.1 89.9 410.5 88.6 C 410.9 87.4 411.4 85.4 411.7 84 C 412.3 81.7 415.1 77 417.5 74.5 C 423.5 68.3 436.3 66.7 443.8 71.2 Z"
    fill="#6f6e6c"
    stroke="#00000000"/>
  <path
    id="path_6"
    d="M 796 49.9 C 793 50.2 789.6 51.1 788.5 51.7 C 787.4 52.4 784.3 53.9 781.7 55 C 774.5 58.1 764.7 68.3 761.2 76.2 C 757.4 84.7 756.5 90.2 756.5 103.5 C 756.6 121.9 760 131.2 770.4 141.6 C 780.2 151.3 792.3 156 808 156 C 816.4 156 829.1 153.3 831.4 151 C 831.9 150.5 833 150 833.8 150 C 835.8 150 843.4 143.9 847.5 139.1 C 851.7 134 856 125.7 856 122.5 C 856 121.3 856.7 118.6 857.5 116.7 C 859.5 111.8 859.5 91.6 857.5 88 C 856.7 86.6 856.1 83.9 856 82 C 856 77.1 847.3 64 841.2 59.5 C 836.2 55.8 835 55.2 827.9 52.1 C 822.7 49.8 805.7 48.6 796 49.9 Z M 815.4 69.9 C 815.7 70.3 817.2 71 818.8 71.3 C 822.7 72.1 829.4 78.9 832 84.7 C 833.8 88.8 834.2 91.5 834.3 102.5 C 834.3 114.9 834.2 115.9 831.5 121.3 C 825.9 132.8 815.4 137.7 801.9 135.2 C 792 133.4 786.3 127.7 782.7 115.9 C 779.4 105.2 781.2 88.4 786.5 80.1 C 790.7 73.4 799.2 69.1 808.7 69.1 C 812.1 69 815.1 69.4 815.4 69.9 Z"
    fill="#8cb712"
    stroke="#00000000"/>
  <path
    id="path_7"
    d="M 146.8 101.6 C 146.6 129.4 146.8 152.4 147.3 152.7 C 147.7 152.9 153.3 153.1 159.8 153.1 L 171.5 153.1 L 171.5 102.3 L 171.5 51.5 L 159.3 51.2 L 147 50.9 L 146.8 101.6 Z"
    fill="#6f6e6c"
    stroke="#00000000"/>
  <path
    id="path_8"
    d="M 492.6 52.6 C 492.3 53.5 492 57.2 492 61 C 492 71.9 489.9 71 516.6 71 L 540 71 L 540 73.3 C 540 74.5 539.2 76.3 538.3 77.1 C 536.5 78.7 535.9 79.4 526.1 91 C 523.1 94.6 520.4 97.7 520 98 C 519.7 98.3 515.2 103.4 510 109.5 C 499.6 121.6 497.9 123.5 492.6 129.7 L 488.9 133.8 L 489.2 143.4 L 489.5 153 L 533 153 L 576.5 153 L 576.8 143.5 L 577.1 134 L 551.6 134 C 537.6 134 525.5 133.7 524.6 133.4 C 522.4 132.6 522.6 130.9 525.3 128 C 526.6 126.6 530.9 121.7 535 117 C 539.1 112.3 543.6 107.3 545 105.9 C 546.4 104.4 548.4 102.2 549.5 100.9 C 553.7 96 569.3 78.5 569.9 78 C 570.3 77.7 571.6 76.2 572.8 74.6 C 574.7 72.1 575 70.5 575 62.9 C 575 58.1 574.7 53.5 574.4 52.6 C 573.9 51.2 569.3 51 533.5 51 C 497.7 51 493.1 51.2 492.6 52.6 Z"
    fill="#6f6e6c"
    stroke="#00000000"/>
  <path
    id="path_9"
    d="M 587.2 51.8 C 586.3 52.4 586 55.1 586.2 61.6 L 586.5 70.5 L 610.3 70.8 C 636.1 71.1 636.1 71 631.8 76.6 C 629.8 79.2 617.3 93.7 616 95 C 615.7 95.3 611.2 100.4 606 106.5 C 600.8 112.5 595.9 118.2 595.1 119.1 C 592.8 121.4 589 125.8 585.3 130.5 C 582.1 134.4 582 134.8 582 143.7 L 582 153 L 625 153 C 648.7 153 668.3 153 668.8 153 C 669.2 153 669.5 148.7 669.5 143.4 L 669.5 133.9 L 643.9 134 C 622.9 134 618.1 133.8 617.1 132.6 C 616.2 131.5 616.2 130.9 617.2 129.8 C 617.9 129.1 621.7 124.9 625.5 120.5 C 633.1 111.8 638.6 105.6 641 103 C 641.8 102.1 645.7 97.8 649.5 93.5 C 656.3 85.7 661.1 80.3 665.8 75.2 C 667 73.8 668 72.2 668 71.6 C 668.3 64.8 668 52.8 667.5 52 C 666.7 50.8 589.2 50.6 587.2 51.8 Z"
    fill="#6f6e6c"
    stroke="#00000000"/>
  <path
    id="path_10"
    d="M 720.4 52.2 C 720 52.9 719.6 75.7 719.6 102.9 L 719.5 152.5 L 731.8 152.8 L 744 153.1 L 744 103.1 C 744 56.5 743.9 53 742.2 52.1 C 739.6 50.7 721.2 50.8 720.4 52.2 Z"
    fill="#8cb712"
    stroke="#00000000"/>
  <path
    id="path_11"
    d="M 691.6 128 L 678.8 128.5 L 678.8 140.5 L 678.8 152.5 L 692.4 152.8 L 706 153.1 L 706 140.6 C 706 133.7 705.7 128 705.3 127.8 C 704.8 127.6 698.7 127.7 691.6 128 Z"
    fill="#6f6e6c"
    stroke="#00000000"/>
</svg>
